assets/images/simple-illustrations/simple-illustration__approval-members.svg

<svg width="48" height="48" viewBox="0 0 48 48" fill="none" xmlns="http://www.w3.org/2000/svg">
<path d="M33.0357 12.9444C33.0357 15.4152 31.021 17.4182 28.5357 17.4182C26.0504 17.4182 24.0357 15.4152 24.0357 12.9444C24.0357 10.4736 26.0504 8.47058 28.5357 8.47058C31.021 8.47058 33.0357 10.4736 33.0357 12.9444Z" fill="#4BA6A6"/>
<path d="M27.6354 31.7344C27.6354 33.5239 26.6661 35.2941 24.0355 35.2941C21.9331 35.2941 19.078 35.2941 15.9332 35.2941C12.7884 35.2941 9.93338 35.2941 7.83095 35.2941C5.14568 35.2941 4.23451 33.5023 4.23535 31.7344C4.23535 26.3442 9.63535 22.7675 15.9332 22.7675C22.2311 22.7675 27.6354 26.3658 27.6354 31.7344Z" fill="#4ED7DE"/>
<path d="M36.6354 31.7344C39.2397 31.7344 40.2354 29.904 40.2354 28.1553C40.2354 22.7675 34.7664 19.2077 28.1594 19.2077C26.3311 19.2077 24.2714 19.7183 23.2149 20.4493C22.1583 21.1802 22.3229 21.9878 23.2149 22.4246C27.7735 24.6569 29.4498 27.9817 29.4498 29.9734C29.4498 31.1086 30.2242 31.7344 31.2217 31.7344H36.6354Z" fill="#4BA6A6"/>
<path d="M20.4357 16.5234C20.4357 18.9942 18.421 20.9972 15.9357 20.9972C13.4504 20.9972 11.4357 18.9942 11.4357 16.5234C11.4357 14.0526 13.4504 12.0496 15.9357 12.0496C18.421 12.0496 20.4357 14.0526 20.4357 16.5234Z" fill="#4ED7DE"/>
<path d="M33.0357 12.9444C33.0357 15.4152 31.021 17.4182 28.5357 17.4182C26.0504 17.4182 24.0357 15.4152 24.0357 12.9444C24.0357 10.4736 26.0504 8.47058 28.5357 8.47058C31.021 8.47058 33.0357 10.4736 33.0357 12.9444Z" stroke="#002140"/>
<path d="M27.6354 31.7344C27.6354 33.5239 26.6661 35.2941 24.0355 35.2941C21.9331 35.2941 19.078 35.2941 15.9332 35.2941C12.7884 35.2941 9.93338 35.2941 7.83095 35.2941C5.14568 35.2941 4.23451 33.5023 4.23535 31.7344C4.23535 26.3442 9.63535 22.7675 15.9332 22.7675C22.2311 22.7675 27.6354 26.3658 27.6354 31.7344Z" stroke="#002140"/>
<path d="M36.6354 31.7344C39.2397 31.7344 40.2354 29.904 40.2354 28.1553C40.2354 22.7675 34.7664 19.2077 28.1594 19.2077C26.3311 19.2077 24.2714 19.7183 23.2149 20.4493C22.1583 21.1802 22.3229 21.9878 23.2149 22.4246C27.7735 24.6569 29.4498 27.9817 29.4498 29.9734C29.4498 31.1086 30.2242 31.7344 31.2217 31.7344H36.6354Z" stroke="#002140"/>
<path d="M20.4357 16.5234C20.4357 18.9942 18.421 20.9972 15.9357 20.9972C13.4504 20.9972 11.4357 18.9942 11.4357 16.5234C11.4357 14.0526 13.4504 12.0496 15.9357 12.0496C18.421 12.0496 20.4357 14.0526 20.4357 16.5234Z" stroke="#002140"/>
</svg>

<svg xmlns="http://www.w3.org/2000/svg" width="48" height="48" fill="none" viewBox="0 0 48 48"><path fill="#4ba6a6" d="M33.036 12.944c0 2.471-2.015 4.474-4.5 4.474-2.486 0-4.5-2.003-4.5-4.474s2.014-4.473 4.5-4.473c2.485 0 4.5 2.003 4.5 4.473"/><path fill="#4ed7de" d="M27.635 31.734c0 1.79-.969 3.56-3.6 3.56H7.831c-2.685 0-3.596-1.792-3.596-3.56 0-5.39 5.4-8.967 11.698-8.967s11.702 3.599 11.702 8.967"/><path fill="#4ba6a6" d="M36.635 31.734c2.605 0 3.6-1.83 3.6-3.579 0-5.388-5.469-8.947-12.076-8.947-1.828 0-3.888.51-4.944 1.241s-.892 1.539 0 1.976c4.558 2.232 6.235 5.557 6.235 7.548 0 1.136.774 1.761 1.772 1.761z"/><path fill="#4ed7de" d="M20.436 16.523c0 2.471-2.015 4.474-4.5 4.474-2.486 0-4.5-2.003-4.5-4.474s2.014-4.473 4.5-4.473c2.485 0 4.5 2.003 4.5 4.473"/><path stroke="#002140" d="M33.036 12.944c0 2.471-2.015 4.474-4.5 4.474-2.486 0-4.5-2.003-4.5-4.474s2.014-4.473 4.5-4.473c2.485 0 4.5 2.003 4.5 4.473Zm-5.401 18.79c0 1.79-.969 3.56-3.6 3.56H7.831c-2.685 0-3.596-1.792-3.596-3.56 0-5.39 5.4-8.967 11.698-8.967s11.702 3.599 11.702 8.967Z"/><path stroke="#002140" d="M36.635 31.734c2.605 0 3.6-1.83 3.6-3.579 0-5.388-5.469-8.947-12.076-8.947-1.828 0-3.888.51-4.944 1.241s-.892 1.539 0 1.976c4.558 2.232 6.235 5.557 6.235 7.548 0 1.136.774 1.761 1.772 1.761zM20.436 16.523c0 2.471-2.015 4.474-4.5 4.474-2.486 0-4.5-2.003-4.5-4.474s2.014-4.473 4.5-4.473c2.485 0 4.5 2.003 4.5 4.473Z"/></svg>
